X:1
M:4/4% Meter / Taktart
L:1/8% Standard Noten Länge
K:Amaj% Tonart: G, beendet den Header
"A"A2 E2|"E"F E D E "A"C3 E | E2 F G A2 B2 | c B A c "E"(B2 B2)|
w:Je-den Mor-gen geht die Son-ne auf in der Wäl-der wun-der-sa-mer Run-de
z2 c d "A"e2c2| "D"d3 c "E"B2 AB | "A"c2 A2 F G A B | c2 dc "E"BA B2 | "A"A4]
w:Und die schö-ne scheu-e Schöp -fer-stun-de, je-den Mor gen nimmt sie_ ih -ren Lauf